**kern
*staff1
*I"Piano
*clefG2
*k[]
*M4/4
=4
4cc\
8ff#\L
8aa\L
8g/L
4ee\
4.dd\
8a/
4a/
2A/
=2
=3
8a/J
8ee\
8g/L
=5
8dd\L
=6
8ee\J
8ff\J
=8
4a/
8aa\L
8bb\
8dd\
4.dd\
8g/L
4gg\
==
=1
4b\
8cc\L
8a/
8b\J
8a/J
8f/J
8e/L
8cc/J
8gg\J
8g/L
8cc/J
8ee\
4ee\
4ee\
8a/J
8r
8b\
4.a/
4cc\
8ee\
8cc\
!!pagebreak:original
=7
8r
4a/
8g/L
8b\J
*-
